gba/_inc/system.svg

<?xml version="1.0" encoding="utf-8"?>
<svg version="1.1" id="svg2" x="0px" y="0px" enable-background="new 0 0 566.929 66.041" xmlns="http://www.w3.org/2000/svg">
  <path id="path12" d="M313.027,16.557h-8.318l-19.605,33.009h23.342v-7.318h-9.514l9.514-17.063l13.789,24.42h10.631  v-0.076h16.6c14.367,0,21.57-5.547,21.57-16.523c0-1.888-0.23-3.66-0.732-5.316l13.25,21.84h6.355l19.066-32.932h-10.092  L386.98,38.164l-12.557-21.568h-10.861l3.004,4.93c-3.504-3.313-8.551-4.93-15.137-4.93h-21.84V43.98L313.027,16.557L313.027,16.557  z M338.988,24.028h12.52c6.508,0,9.82,2.851,9.82,8.551c0,3.429-1.039,5.932-3.004,7.241c-1.887,1.348-5.469,2.003-10.477,2.003  h-8.82V24.028H338.988z" style="fill-opacity: 1; fill: rgb(255, 255, 255);"/>
  <polygon id="polygon14" points="423.033,16.557 414.675,16.557 395.146,49.565 405.007,49.565 405.007,49.488   418.488,49.488 418.488,42.131 409.052,42.131 418.412,25.146 432.201,49.565 442.947,49.565 442.947,49.488 448.416,49.488   448.416,29.575 473.337,49.488 479.808,49.488 479.808,16.557 471.179,16.557 471.179,36.238 446.027,16.557 439.595,16.557   439.595,43.941 " style="fill-opacity: 1; fill: rgb(255, 255, 255);"/>
  <path id="path16" d="M484.738,18.404c-1.348,1.195-2.041,3.352-2.041,6.434v16.33c0,3.159,0.693,5.316,2.002,6.51  c1.271,1.195,3.582,1.811,6.973,1.811h19.373c3.352,0,5.777-0.616,7.049-1.811c1.271-1.193,2.004-3.351,2.004-6.51v-4.583  l-9.514-0.154v5.085h-18.412V24.221h18.412v4.507h9.514v-3.89c0-3.236-0.732-5.393-2.004-6.434  c-1.271-1.271-3.504-1.887-7.049-1.887h-19.373C488.32,16.557,486.009,17.135,484.738,18.404L484.738,18.404z" style="fill-opacity: 1; fill: rgb(255, 255, 255);"/>
  <polygon id="polygon18" points="532.769,28.766 532.769,24.028 558.458,24.028 558.458,16.557 523.255,16.557   523.255,49.488 558.882,49.488 558.882,41.862 532.769,41.862 532.769,36.008 547.83,36.008 547.83,28.766 " style="fill-opacity: 1; fill: rgb(255, 255, 255);"/>
  <path id="path20" d="M50.841,10.354C40.519,6.619,30.542,7.813,20.99,13.706C11.554,19.483,7.433,28.304,8.55,39.82  c0.307,3.352,1.578,6.433,3.736,9.129c2.156,2.696,4.93,4.621,8.242,6.123c3.35,1.503,6.895,2.08,10.631,1.888  c4.121-0.231,7.857-1.425,11.516-3.429l0.385-0.23l-1.424,3.158H51.65l6.434-13.981h11.092l2.465,13.981h16.41l8.396-26.191  l5.393,26.191h6.508l12.557-29.041l1.271,29.041h9.592l-1.965-46.914H118.13l-10.938,25.652l-4.699-25.652h-9.592L80.539,47.484  L74.183,9.545H62.359L44.255,50.489l2.619-17.141H29.001l-1.348,8.821h7.473l-0.732,4.698l-7.857,0.54  c-3.158-0.809-5.393-2.465-6.895-5.085c-1.271-2.465-1.887-5.007-1.578-7.856c0.385-3.968,2.311-7.55,5.969-10.785  c3.313-2.928,7.551-4.584,12.635-5.238c4.854-0.732,9.129-0.231,12.711,1.348L50.841,10.354L50.841,10.354z M67.751,33.311H61.82  l4.121-9.051L67.751,33.311z" style="fill-opacity: 1; fill: rgb(255, 255, 255);"/>
  <polygon id="polygon22" points="166.779,9.508 140.085,9.508 132.576,56.46 159.46,56.46 161.193,46.484   144.246,46.484 145.593,38.087 160.269,38.087 161.847,27.996 147.019,27.996 148.291,19.6 165.199,19.6 " style="fill-opacity: 1; fill: rgb(255, 255, 255);"/>
  <polygon id="polygon24" points="284.949,9.508 273.74,9.508 264.15,24.875 258.179,9.508 247.087,9.508   258.564,34.273 254.945,56.46 264.689,56.46 267.617,36.894 " style="fill-opacity: 1; fill: rgb(255, 255, 255);"/>
  <path id="path26" d="M237.88,9.97c-5.469-1.271-10.477,0-15.33,3.736c-4.852,3.582-8.012,8.743-9.668,15.253  c-1.424,6.432-0.73,12.518,1.889,17.871c2.773,5.547,6.74,8.898,12.209,10.092c5.393,1.271,10.4,0,15.254-3.659  c4.854-3.736,8.088-8.897,9.59-15.407c1.502-6.432,0.811-12.44-1.887-17.871C247.24,14.515,243.197,11.164,237.88,9.97L237.88,9.97z   M237.072,19.329c2.619,1.04,4.275,3.429,5.162,6.972c0.885,3.582,0.693,7.318-0.617,11.285c-1.271,3.891-3.35,6.818-6.047,8.667  c-2.773,2.003-5.393,2.388-7.857,1.271c-2.619-1.04-4.352-3.429-5.238-6.972c-0.963-3.659-0.617-7.396,0.654-11.285  c1.271-3.813,3.352-6.818,6.047-8.821C231.833,18.559,234.531,18.135,237.072,19.329L237.072,19.329z" style="fill-opacity: 1; fill: rgb(255, 255, 255);"/>
  <path id="path28" d="M205.025,11.626c-1.887-1.194-3.736-1.81-5.545-1.81h-17.949l-7.396,46.644h21.57  c2.311,0,4.699-0.731,7.203-2.233c2.465-1.503,4.352-3.352,5.854-5.624c1.58-2.618,2.156-5.161,1.889-7.856  c-0.309-2.928-1.889-5.701-4.623-8.32c5.469-5.623,6.74-10.939,3.891-16.023C208.685,14.515,207.144,12.896,205.025,11.626z   M188.347,28.381l1.502-8.666h6.279c1.58,0,2.773,0.461,3.582,1.348c0.693,0.809,0.963,1.811,0.809,3.004  c-0.154,1.195-0.73,2.157-1.656,3.005c-1.039,0.886-2.311,1.349-3.813,1.349h-6.703l10.861,11.092  c0.887,0.887,1.35,2.042,1.271,3.313c-0.076,1.271-0.693,2.312-1.811,3.236c-1.115,0.885-2.695,1.425-4.852,1.425h-8.475  l1.502-9.437h8.088c1.811,0,3.236,0.539,4.275,1.502L188.347,28.381L188.347,28.381z" style="fill-opacity: 1; fill: rgb(255, 255, 255);"/>
  <path id="path30" d="M276.437,52.262c0-1.349-0.539-2.389-1.35-3.275c-0.885-0.885-2.002-1.424-3.311-1.424  c-1.271,0-2.389,0.539-3.275,1.424c-0.885,0.887-1.348,1.965-1.348,3.275c0,1.271,0.463,2.311,1.348,3.234  c0.887,0.887,2.004,1.426,3.275,1.426c1.27,0,2.387-0.539,3.311-1.426C275.898,54.572,276.437,53.533,276.437,52.262z   M274.548,49.488c0.693,0.693,1.117,1.656,1.117,2.773c0,1.04-0.461,1.965-1.117,2.773c-0.654,0.654-1.656,1.04-2.771,1.04  c-1.117,0-2.08-0.386-2.773-1.04c-0.811-0.809-1.195-1.732-1.195-2.773c0-1.117,0.387-2.08,1.195-2.773  c0.654-0.809,1.656-1.194,2.773-1.194C272.931,48.294,273.894,48.641,274.548,49.488z" style="fill-opacity: 1; fill: rgb(255, 255, 255);"/>
  <path id="path32" d="M273.433,49.873l-1.271-0.308h-2.234v5.238h0.732v-2.388h1.039l1.426,2.388h0.809l-1.58-2.388  c1.041,0,1.656-0.462,1.656-1.502C274.048,50.451,273.894,50.027,273.433,49.873z M273.279,50.914c0,0.616-0.617,0.885-1.734,0.885  h-0.885v-1.656h1.424C272.931,50.143,273.279,50.451,273.279,50.914L273.279,50.914z" style="fill-opacity: 1; fill: rgb(255, 255, 255);"/>
</svg>

<?xml version="1.0" encoding="utf-8"?>
<svg version="1.1" id="svg2" x="0px" y="0px" enable-background="new 0 0 566.929 66.041" xmlns="http://www.w3.org/2000/svg">
  <g transform="matrix(0.715187, 0, 0, 0.715187, -4.498526, -6.879385)">
    <path id="path12" d="M 34.213 68.156 L 25.895 68.156 L 6.29 101.165 L 29.632 101.165 L 29.632 93.847 L 20.118 93.847 L 29.632 76.784 L 43.421 101.204 L 54.052 101.204 L 54.052 101.128 L 70.652 101.128 C 85.019 101.128 92.222 95.581 92.222 84.605 C 92.222 82.717 91.992 80.945 91.49 79.289 L 104.74 101.129 L 111.095 101.129 L 130.161 68.197 L 120.069 68.197 L 108.166 89.763 L 95.609 68.195 L 84.748 68.195 L 87.752 73.125 C 84.248 69.812 79.201 68.195 72.615 68.195 L 50.775 68.195 L 50.775 95.579 L 34.213 68.156 L 34.213 68.156 Z M 60.174 75.627 L 72.694 75.627 C 79.202 75.627 82.514 78.478 82.514 84.178 C 82.514 87.607 81.475 90.11 79.51 91.419 C 77.623 92.767 74.041 93.422 69.033 93.422 L 60.213 93.422 L 60.213 75.627 L 60.174 75.627 Z" style="fill-opacity: 1; fill: rgb(255, 255, 255);"/>
    <polygon id="polygon14" points="144.219 68.156 135.861 68.156 116.332 101.164 126.193 101.164 126.193 101.087 139.674 101.087 139.674 93.73 130.238 93.73 139.598 76.745 153.387 101.164 164.133 101.164 164.133 101.087 169.602 101.087 169.602 81.174 194.523 101.087 200.994 101.087 200.994 68.156 192.365 68.156 192.365 87.837 167.213 68.156 160.781 68.156 160.781 95.54" style="fill-opacity: 1; fill: rgb(255, 255, 255);"/>
    <path id="path16" d="M 205.924 70.003 C 204.576 71.198 203.883 73.355 203.883 76.437 L 203.883 92.767 C 203.883 95.926 204.576 98.083 205.885 99.277 C 207.156 100.472 209.467 101.088 212.858 101.088 L 232.231 101.088 C 235.583 101.088 238.008 100.472 239.28 99.277 C 240.551 98.084 241.284 95.926 241.284 92.767 L 241.284 88.184 L 231.77 88.03 L 231.77 93.115 L 213.358 93.115 L 213.358 75.82 L 231.77 75.82 L 231.77 80.327 L 241.284 80.327 L 241.284 76.437 C 241.284 73.201 240.552 71.044 239.28 70.003 C 238.009 68.732 235.776 68.116 232.231 68.116 L 212.858 68.116 C 209.506 68.156 207.195 68.734 205.924 70.003 L 205.924 70.003 Z" style="fill-opacity: 1; fill: rgb(255, 255, 255);"/>
    <polygon id="polygon18" points="253.955 80.365 253.955 75.627 279.644 75.627 279.644 68.156 244.441 68.156 244.441 101.087 280.068 101.087 280.068 93.461 253.955 93.461 253.955 87.607 269.016 87.607 269.016 80.365" style="fill-opacity: 1; fill: rgb(255, 255, 255);"/>
  </g>
  <g transform="matrix(0.715187, 0, 0, 0.715187, -3.791929, -4.733823)">
    <path id="path20" d="M 50.841 10.354 C 40.519 6.619 30.542 7.813 20.99 13.706 C 11.554 19.483 7.433 28.304 8.55 39.82 C 8.857 43.172 10.128 46.253 12.286 48.949 C 14.442 51.645 17.216 53.57 20.528 55.072 C 23.878 56.575 27.423 57.152 31.159 56.96 C 35.28 56.729 39.016 55.535 42.675 53.531 L 43.06 53.301 L 41.636 56.459 L 51.65 56.459 L 58.084 42.478 L 69.176 42.478 L 71.641 56.459 L 88.051 56.459 L 96.447 30.268 L 101.84 56.459 L 108.348 56.459 L 120.905 27.418 L 122.176 56.459 L 131.768 56.459 L 129.803 9.545 L 118.13 9.545 L 107.192 35.197 L 102.493 9.545 L 92.901 9.545 L 80.539 47.484 L 74.183 9.545 L 62.359 9.545 L 44.255 50.489 L 46.874 33.348 L 29.001 33.348 L 27.653 42.169 L 35.126 42.169 L 34.394 46.867 L 26.537 47.407 C 23.379 46.598 21.144 44.942 19.642 42.322 C 18.371 39.857 17.755 37.315 18.064 34.466 C 18.449 30.498 20.375 26.916 24.033 23.681 C 27.346 20.753 31.584 19.097 36.668 18.443 C 41.522 17.711 45.797 18.212 49.379 19.791 L 50.841 10.354 L 50.841 10.354 Z M 67.751 33.311 L 61.82 33.311 L 65.941 24.26 L 67.751 33.311 Z" style="fill-opacity: 1; fill: rgb(255, 255, 255);"/>
    <polygon id="polygon22" points="166.779 9.508 140.085 9.508 132.576 56.46 159.46 56.46 161.193 46.484 144.246 46.484 145.593 38.087 160.269 38.087 161.847 27.996 147.019 27.996 148.291 19.6 165.199 19.6" style="fill-opacity: 1; fill: rgb(255, 255, 255);"/>
    <polygon id="polygon24" points="284.949 9.508 273.74 9.508 264.15 24.875 258.179 9.508 247.087 9.508 258.564 34.273 254.945 56.46 264.689 56.46 267.617 36.894" style="fill-opacity: 1; fill: rgb(255, 255, 255);"/>
    <path id="path26" d="M 237.88 9.97 C 232.411 8.699 227.403 9.97 222.55 13.706 C 217.698 17.288 214.538 22.449 212.882 28.959 C 211.458 35.391 212.152 41.477 214.771 46.83 C 217.544 52.377 221.511 55.728 226.98 56.922 C 232.373 58.193 237.38 56.922 242.234 53.263 C 247.088 49.527 250.322 44.366 251.824 37.856 C 253.326 31.424 252.635 25.416 249.937 19.985 C 247.24 14.515 243.197 11.164 237.88 9.97 L 237.88 9.97 Z M 237.072 19.329 C 239.691 20.369 241.347 22.758 242.234 26.301 C 243.119 29.883 242.927 33.619 241.617 37.586 C 240.346 41.477 238.267 44.404 235.57 46.253 C 232.797 48.256 230.177 48.641 227.713 47.524 C 225.094 46.484 223.361 44.095 222.475 40.552 C 221.512 36.893 221.858 33.156 223.129 29.267 C 224.4 25.454 226.481 22.449 229.176 20.446 C 231.833 18.559 234.531 18.135 237.072 19.329 L 237.072 19.329 Z" style="fill-opacity: 1; fill: rgb(255, 255, 255);"/>
    <path id="path28" d="M 205.025 11.626 C 203.138 10.432 201.289 9.816 199.48 9.816 L 181.531 9.816 L 174.135 56.46 L 195.705 56.46 C 198.016 56.46 200.404 55.729 202.908 54.227 C 205.373 52.724 207.26 50.875 208.762 48.603 C 210.342 45.985 210.918 43.442 210.651 40.747 C 210.342 37.819 208.762 35.046 206.028 32.427 C 211.497 26.804 212.768 21.488 209.919 16.404 C 208.685 14.515 207.144 12.896 205.025 11.626 Z M 188.347 28.381 L 189.849 19.715 L 196.128 19.715 C 197.708 19.715 198.901 20.176 199.71 21.063 C 200.403 21.872 200.673 22.874 200.519 24.067 C 200.365 25.262 199.789 26.224 198.863 27.072 C 197.824 27.958 196.552 28.421 195.05 28.421 L 188.347 28.421 L 199.208 39.513 C 200.095 40.4 200.558 41.555 200.479 42.826 C 200.403 44.097 199.786 45.138 198.668 46.062 C 197.553 46.947 195.973 47.487 193.816 47.487 L 185.341 47.487 L 186.843 38.05 L 194.931 38.05 C 196.742 38.05 198.167 38.589 199.206 39.552 L 188.347 28.381 L 188.347 28.381 Z" style="fill-opacity: 1; fill: rgb(255, 255, 255);"/>
  </g>
</svg>
